X:95
T:Ingonish
M:6/8
R:J
F:http://blackrosetheband.googlepages.com/ABCTUNES.ABC May 2009
S:Altan: Island Angel
C:Mike McDougall
K:D
A|:Bee efg|faf dBA|Bee efg|fdc d2A|
Bee efg|faf dBA|B2B Bcd|AGF E2A:|
|:BEE BEE|FEF DFA|BEE BEE|FED E2c|
BEE BEE|FEF DFA|B2B Bcd|AGF E2A:||
